X:275
T: Whole Chicken in the Soup
T: Chearc ar fad is an tAnraith
S: B.Breathnach: "Ceol Rince na hEireann" II/63
Z: B.Black
L: 1/8
M: 12/8
R: slide
Q: 375
K: G
G2E D2E G2A B2B|cBA B2G A2G EDE|
G2E D2E G2A B2B|d2B ABA G3 G3 :|
efg d2B c2e d2d|d2B A2G E2A A3|
efg d2B c2e d2d|d2B ABA G3 G3|
efg d2B c2e d2d|d2B A2G E2A ABA|
G2E D2E G2A B2d|d2B ABA G3 G3||

